X:1
T:Come, Sinner, Come
T:Come, Sinner, Come
T:Horatio Richmond Palmer, 1879
T:William Ellsworth Witter, 1877
T:Public Domain Courtesy of the Cyber Hymnal™
C:Horatio Richmond Palmer, 1879
Z:Public Domain
Z:Courtesy of the Cyber Hymnal™
%%score ( 1 2 ) ( 3 4 )
L:1/8
Q:1/4=115
M:6/8
K:F
V:1 treble 
V:2 treble 
V:3 bass 
V:4 bass 
V:1
 [FA]3 (FG)[FA] | [FB]2 D [DA]2 [DG] | [CF]3 ([EG][DF])[EG] | [FA]3- [FA]2 z | [FA]3 (FG)[FA] | %5
w: 1.~While Je- * sus|whis- pers to you,|Come, sin- * ner,|come! *|While we * are|
w: 2.~Are you * too|hea- vy la- den?|Come, sin- * ner,|come! *|Je- sus * will|
w: 3.~O hear * His|ten- der plead- ing:|Come, sin- * ner,|come! *|Come and * re-|
 [FB]2 D [DA]2 [DG] | [CF]3 (EF)[CG] | [CF]3- [CF]2 z | [Ac]3 [GB]2 [FA] | %9
w: pray- ing for you,|Come, sin- * ner,|come! *|Now is the|
w: bear your bur- den:|Come, sin- * ner,|come! *|Je- sus will|
w: ceive the bless- ing:|Come, sin- * ner,|come! *|While Je- sus|
 ([EG][FA])[GB] [FA]2 [DG] | [CF]3 ([EG][DF])[EG] | [FA]3- [FA]2 z | [Ac]3 [GB]2 [FA] | %13
w: time * to own Him:|Come, sin- * ner,|come! *|Now is the|
w: not * de- ceive you:|Come, sin- * ner,|come! *|Je- sus can|
w: whis- * pers to you,|Come, sin- * ner,|come! *|While we are|
 ([EG][FA])[GB] [FA]2 [DG] | [CF]3 (EF)[CG] | [CF]6 |] %16
w: time * to know Him:|Come, sin- * ner,|come!|
w: now * re- deem you:|Come, sin- * ner,|come!|
w: pray- * ing for you,|Come, sin- * ner,|come!|
V:2
 x3 F2 x | x2 D x3 | x6 | x6 | x3 F2 x | x2 D x3 | x3 C2 x | x6 | x6 | x6 | x6 | x6 | x6 | x6 | %14
 x3 C2 x | x6 |] %16
V:3
 [F,C]3 (A,B,)[F,C] | [B,,D]2 [B,,B,] [B,,C]2 [B,,B,] | [C,A,]3 [C,C]2 [C,C] | [F,C]3- [F,C]2 z | %4
 [F,C]3 (A,B,)[F,C] | [B,,D]2 [B,,B,] [B,,C]2 [B,,B,] | [C,A,]3 (G,A,)[C,B,] | [F,A,]3- [F,A,]2 z | %8
 [C,C]3 [C,C]2 [C,C] | [C,C]2 [C,C] [F,C]2 [B,,B,] | [C,A,]3 [C,C]2 [C,C] | [F,C]3- [F,C]2 z | %12
 [C,C]3 [C,C]2 [C,C] | [C,C]2 [C,C] [F,C]2 [B,,B,] | [C,A,]3 (G,A,)[C,B,] | [F,A,]6 |] %16
V:4
 x3 F,2 x | x6 | x6 | x6 | x3 F,2 x | x6 | x3 C,2 x | x6 | x6 | x6 | x6 | x6 | x6 | x6 | x3 C,2 x | %15
 x6 |] %16

